assets/symbols/mulberry/flag_maldives.svg

<svg height="850.394" viewBox="0 0 850.394 850.394" width="850.394" xmlns="http://www.w3.org/2000/svg"><path d="m162.61 114.42v670.96h-39.49l-1.12-670.61c5.8 2.59 12.62 4.08 19.92 4.08 7.62 0 14.73-1.63 20.69-4.43z" fill="#c8c8c8"/><path d="m748.18 479.6v40.57h-579.62l-3.49-379.83h583.11zm-130.02-31v-212.6h-340.16v212.6z" fill="#ed1e29"/><path d="m618.16 236v212.6h-340.16v-212.6zm-150.16 182c-20-16-72-90-2-160-140 76-18 156 2 160z" fill="#58b947"/><path d="m466 258c-70 70-18 144 2 160-20-4-142-84-2-160z" fill="#fff"/><path d="m162.61 114.42c-5.96 2.8-13.07 4.43-20.69 4.43-7.3 0-14.12-1.49-19.92-4.08-10.99-4.89-18.33-13.72-18.33-23.8 0-15.4 17.13-27.88 38.25-27.88 21.13 0 38.26 12.48 38.26 27.88 0 9.84-7 18.49-17.57 23.45z" fill="#c8c8c8"/><g fill="none"><g stroke="#231f20"><path d="m165.07 140.34h583.11v379.83h-579.62m-46.56-405.4c-10.99-4.89-18.33-13.72-18.33-23.8 0-15.4 17.13-27.88 38.25-27.88 21.13 0 38.26 12.48 38.26 27.88 0 9.84-7 18.49-17.57 23.45-5.96 2.8-13.07 4.43-20.69 4.43-7.3 0-14.12-1.49-19.92-4.08z" stroke-width="21"/><path d="m122 114v.77l1.12 670.61m39.49-672.78v672.78" stroke-width="21"/><path d="m744.76 179.39 3.42-1.93 2.01-1.14m1.01 305.06-3.02-1.78-7.12-4.19" stroke-width="14"/><path d="m466 258c-140 76-18 156 2 160m-2-160c-70 70-18 144 2 160" stroke-width="7"/><path d="m278 236h340.16v212.6h-340.16z" stroke-width="14"/></g><path d="m0 0h850.394v850.394h-850.394z"/></g></svg>

<svg xmlns="http://www.w3.org/2000/svg" width="850.394" height="850.394" viewBox="0 0 850.394 850.394" overflow="visible"><path d="M162.61 114.42v670.96h-39.49L122 114.77c5.8 2.59 12.62 4.08 19.92 4.08 7.62 0 14.73-1.63 20.69-4.43z" fill="#c8c8c8"/><path d="M748.18 479.6v40.57H168.56l-3.49-379.83h583.11V479.6zm-130.02-31V236H278v212.6h340.16z" fill="#ed1e29"/><path d="M618.16 236v212.6H278V236h340.16zM468 418c-20-16-72-90-2-160-140 76-18 156 2 160z" fill="#58b947"/><path d="M466 258c-70 70-18 144 2 160-20-4-142-84-2-160z" fill="#fff"/><path d="M162.61 114.42c-5.96 2.8-13.07 4.43-20.69 4.43-7.3 0-14.12-1.49-19.92-4.08-10.99-4.89-18.33-13.72-18.33-23.8 0-15.4 17.13-27.88 38.25-27.88 21.13 0 38.26 12.48 38.26 27.88 0 9.84-7 18.49-17.57 23.45z" fill="#c8c8c8"/><g fill="none" stroke="#231f20"><path stroke-width="21" d="M165.07 140.34h583.11v379.83H168.56M122 114.77c-10.99-4.89-18.33-13.72-18.33-23.8 0-15.4 17.13-27.88 38.25-27.88 21.13 0 38.26 12.48 38.26 27.88 0 9.84-7 18.49-17.57 23.45-5.96 2.8-13.07 4.43-20.69 4.43-7.3 0-14.12-1.49-19.92-4.08z"/><path stroke-width="21" d="M122 114v.77l1.12 670.61M162.61 112.6V785.38"/><path stroke-width="14" d="M744.76 179.39l3.42-1.93 2.01-1.14M751.2 481.38l-3.02-1.78-7.12-4.19"/><path d="M466 258c-140 76-18 156 2 160M466 258c-70 70-18 144 2 160" stroke-width="7"/><path stroke-width="14" d="M278 236h340.16v212.6H278z"/></g><path fill="none" d="M0 0h850.394v850.394H0z"/></svg>
